X: 95
T:Processional Morris
M:C|
L:1/8
Q:200
C:Trad
S:Blodau'r Grug Collection Vol. 2
R:Set Dance
A:Wales
Z:brian_martin12345@yahoo.com
K:D
F2A2d2e2|fgfe dcBA|G2B2F2A2|EFGA GFEG|F2A2d2e2|!
fgfe dcBA|fagf egfe|d2d2d4:||
d2f2c2e2|Bcde dcBA|!G2B2F2A2|EFGA GFEG|
F2A2d2e2|fgfe dcBA|fagf egfe|d2d2d4:||

% Output from ABC2Win  Version 2.1 i on 29/12/2002
